svg/color/ikura.svg

<?xml version="1.0" encoding="UTF-8" ?>
<!DOCTYPE svg PUBLIC "-//W3C//DTD SVG 1.1//EN" "http://www.w3.org/Graphics/SVG/1.1/DTD/svg11.dtd">
<svg width="228pt" height="250pt" viewBox="0 0 228 250" version="1.1" xmlns="http://www.w3.org/2000/svg">
<g id="#ffffffff">
<path fill="#ffffff" opacity="1.00" d=" M 0.00 0.00 L 228.00 0.00 L 228.00 250.00 L 0.00 250.00 L 0.00 0.00 M 133.02 11.28 C 122.22 15.78 113.08 24.73 109.26 35.89 C 105.13 35.23 101.73 32.51 97.82 31.17 C 90.27 27.79 82.21 25.77 74.06 24.54 C 66.63 24.43 59.02 23.72 51.75 25.68 C 30.86 29.58 12.49 46.40 7.91 67.32 C 6.83 75.84 8.13 84.49 6.68 92.99 C 6.40 110.32 6.41 127.66 6.17 145.00 C 6.25 149.51 5.78 154.17 7.24 158.53 C 10.15 170.03 19.21 178.85 28.98 184.95 C 47.16 196.08 68.64 198.91 88.59 205.40 C 106.11 211.27 122.80 222.27 131.90 238.74 C 134.12 238.30 136.01 237.02 137.78 235.68 C 150.40 225.78 162.84 215.58 173.98 204.00 C 186.78 190.77 198.49 176.06 205.87 159.06 C 210.19 149.24 212.23 138.58 213.22 127.95 C 213.40 119.63 213.35 111.30 213.89 103.00 C 214.83 95.71 214.24 88.33 215.20 81.04 C 215.49 71.49 216.29 61.75 214.03 52.35 C 211.10 38.02 203.26 24.39 190.91 16.20 C 174.09 5.03 151.49 3.14 133.02 11.28 Z" />
<path fill="#ffffff" opacity="1.00" d=" M 144.55 18.52 C 157.25 14.03 172.20 16.79 182.43 25.57 C 188.50 30.81 191.98 38.45 193.67 46.16 C 198.11 61.64 194.00 78.10 187.23 92.25 C 179.25 107.81 168.52 121.85 156.49 134.47 C 155.63 135.64 154.62 133.63 154.13 133.02 C 149.67 125.29 142.71 118.84 134.26 115.75 C 121.77 110.43 108.37 107.76 94.97 105.95 C 82.19 103.16 68.88 102.24 56.67 97.19 C 46.77 92.97 37.98 85.76 32.77 76.25 C 29.07 68.71 29.29 59.12 34.05 52.08 C 39.66 43.40 49.71 38.62 59.61 36.83 C 72.54 35.17 85.85 36.77 97.92 41.76 C 104.50 44.29 110.56 48.01 117.16 50.50 C 120.08 46.04 119.97 40.40 122.69 35.86 C 127.14 27.29 135.64 21.65 144.55 18.52 M 141.09 30.11 C 130.90 38.64 124.94 51.73 124.49 64.95 C 117.23 61.56 110.54 57.03 103.12 53.95 C 91.00 48.87 77.77 45.03 64.53 47.08 C 61.53 47.57 58.63 49.19 55.52 48.50 C 53.64 48.17 50.87 47.77 50.34 50.26 C 49.17 54.08 45.19 55.99 43.84 59.68 C 42.45 64.60 43.59 70.19 47.01 74.03 C 55.51 83.87 67.34 91.08 80.30 92.98 C 81.15 91.70 81.94 90.38 82.72 89.05 C 84.29 90.01 85.20 91.62 85.97 93.24 C 91.68 94.13 97.79 94.09 102.96 96.97 C 105.61 98.52 108.82 97.16 111.67 97.96 C 122.30 100.16 132.68 103.67 142.46 108.36 C 146.89 110.43 150.81 113.37 154.43 116.61 C 155.20 117.15 156.47 118.42 157.36 117.38 C 165.36 110.12 170.70 100.54 176.10 91.32 C 178.46 86.03 179.93 80.40 181.61 74.87 C 183.26 68.04 182.65 60.92 182.61 53.95 C 182.65 48.52 180.14 43.59 177.89 38.80 C 176.42 36.06 178.71 32.16 175.99 30.00 C 173.66 27.21 169.81 29.60 166.88 28.32 C 163.98 27.20 160.98 26.29 157.85 26.22 C 158.09 27.66 158.33 29.10 158.57 30.54 C 158.05 30.54 157.00 30.55 156.47 30.56 C 157.17 29.00 157.59 27.34 157.83 25.65 C 152.04 25.72 145.80 26.41 141.09 30.11 Z" />
<path fill="#ffffff" opacity="1.00" d=" M 63.17 54.53 C 64.12 53.33 65.06 52.12 66.04 50.94 C 67.27 52.24 68.45 53.67 68.64 55.53 C 66.80 55.31 64.98 54.91 63.17 54.53 Z" />
<path fill="#ffffff" opacity="1.00" d=" M 89.48 55.69 C 90.75 55.70 92.02 55.73 93.29 55.74 C 93.37 57.04 93.42 58.34 93.48 59.64 C 91.27 59.56 89.20 58.11 89.48 55.69 Z" />
<path fill="#ffffff" opacity="1.00" d=" M 54.33 71.77 C 55.61 70.52 56.85 69.23 58.08 67.93 C 60.25 69.56 60.90 72.10 60.49 74.70 C 58.17 74.36 56.24 73.01 54.33 71.77 Z" />
<path fill="#ffffff" opacity="1.00" d=" M 75.69 69.50 C 77.83 69.46 79.61 70.64 81.11 72.06 C 79.54 73.32 77.56 73.47 75.63 73.40 C 75.63 72.10 75.65 70.80 75.69 69.50 Z" />
<path fill="#ffffff" opacity="1.00" d=" M 124.51 69.65 C 126.12 69.62 127.74 69.59 129.36 69.61 C 129.38 70.85 129.39 72.08 129.41 73.32 C 128.07 73.35 126.72 73.37 125.38 73.43 C 125.04 72.18 124.75 70.92 124.51 69.65 Z" />
<path fill="#ffffff" opacity="1.00" d=" M 105.36 75.06 C 106.38 74.49 107.34 73.39 108.61 73.57 C 109.62 74.37 110.61 75.36 110.71 76.72 C 109.32 77.95 107.38 77.36 105.72 77.44 C 105.63 76.84 105.45 75.66 105.36 75.06 Z" />
<path fill="#ffffff" opacity="1.00" d=" M 165.64 92.50 C 166.87 92.54 168.11 92.57 169.35 92.60 C 169.44 93.60 169.54 94.61 169.64 95.62 C 168.32 95.50 167.00 95.39 165.68 95.29 C 165.66 94.36 165.65 93.43 165.64 92.50 Z" />
</g>
<g id="#242021ff">
<path fill="#242021" opacity="1.00" d=" M 133.02 11.28 C 151.49 3.14 174.09 5.03 190.91 16.20 C 203.26 24.39 211.10 38.02 214.03 52.35 C 216.29 61.75 215.49 71.49 215.20 81.04 C 214.24 88.33 214.83 95.71 213.89 103.00 C 213.35 111.30 213.40 119.63 213.22 127.95 C 212.23 138.58 210.19 149.24 205.87 159.06 C 198.49 176.06 186.78 190.77 173.98 204.00 C 162.84 215.58 150.40 225.78 137.78 235.68 C 136.01 237.02 134.12 238.30 131.90 238.74 C 122.80 222.27 106.11 211.27 88.59 205.40 C 68.64 198.91 47.16 196.08 28.98 184.95 C 19.21 178.85 10.15 170.03 7.24 158.53 C 5.78 154.17 6.25 149.51 6.17 145.00 C 6.41 127.66 6.40 110.32 6.68 92.99 C 8.13 84.49 6.83 75.84 7.91 67.32 C 12.49 46.40 30.86 29.58 51.75 25.68 C 59.02 23.72 66.63 24.43 74.06 24.54 C 82.21 25.77 90.27 27.79 97.82 31.17 C 101.73 32.51 105.13 35.23 109.26 35.89 C 113.08 24.73 122.22 15.78 133.02 11.28 M 144.55 18.52 C 135.64 21.65 127.14 27.29 122.69 35.86 C 119.97 40.40 120.08 46.04 117.16 50.50 C 110.56 48.01 104.50 44.29 97.92 41.76 C 85.85 36.77 72.54 35.17 59.61 36.83 C 49.71 38.62 39.66 43.40 34.05 52.08 C 29.29 59.12 29.07 68.71 32.77 76.25 C 37.98 85.76 46.77 92.97 56.67 97.19 C 68.88 102.24 82.19 103.16 94.97 105.95 C 108.37 107.76 121.77 110.43 134.26 115.75 C 142.71 118.84 149.67 125.29 154.13 133.02 C 154.62 133.63 155.63 135.64 156.49 134.47 C 168.52 121.85 179.25 107.81 187.23 92.25 C 194.00 78.10 198.11 61.64 193.67 46.16 C 191.98 38.45 188.50 30.81 182.43 25.57 C 172.20 16.79 157.25 14.03 144.55 18.52 Z" />
</g>
<g id="#b82628ff">
<path fill="#b82628" opacity="1.00" d=" M 141.09 30.11 C 145.80 26.41 152.04 25.72 157.83 25.65 C 157.59 27.34 157.17 29.00 156.47 30.56 C 157.00 30.55 158.05 30.54 158.57 30.54 C 158.33 29.10 158.09 27.66 157.85 26.22 C 160.98 26.29 163.98 27.20 166.88 28.32 C 169.81 29.60 173.66 27.21 175.99 30.00 C 178.71 32.16 176.42 36.06 177.89 38.80 C 180.14 43.59 182.65 48.52 182.61 53.95 C 182.65 60.92 183.26 68.04 181.61 74.87 C 179.93 80.40 178.46 86.03 176.10 91.32 C 170.70 100.54 165.36 110.12 157.36 117.38 C 156.47 118.42 155.20 117.15 154.43 116.61 C 150.81 113.37 146.89 110.43 142.46 108.36 C 132.68 103.67 122.30 100.16 111.67 97.96 C 108.82 97.16 105.61 98.52 102.96 96.97 C 97.79 94.09 91.68 94.13 85.97 93.24 C 85.20 91.62 84.29 90.01 82.72 89.05 C 81.94 90.38 81.15 91.70 80.30 92.98 C 67.34 91.08 55.51 83.87 47.01 74.03 C 43.59 70.19 42.45 64.60 43.84 59.68 C 45.19 55.99 49.17 54.08 50.34 50.26 C 50.87 47.77 53.64 48.17 55.52 48.50 C 58.63 49.19 61.53 47.57 64.53 47.08 C 77.77 45.03 91.00 48.87 103.12 53.95 C 110.54 57.03 117.23 61.56 124.49 64.95 C 124.94 51.73 130.90 38.64 141.09 30.11 M 63.17 54.53 C 64.98 54.91 66.80 55.31 68.64 55.53 C 68.45 53.67 67.27 52.24 66.04 50.94 C 65.06 52.12 64.12 53.33 63.17 54.53 M 89.48 55.69 C 89.20 58.11 91.27 59.56 93.48 59.64 C 93.42 58.34 93.37 57.04 93.29 55.74 C 92.02 55.73 90.75 55.70 89.48 55.69 M 54.33 71.77 C 56.24 73.01 58.17 74.36 60.49 74.70 C 60.90 72.10 60.25 69.56 58.08 67.93 C 56.85 69.23 55.61 70.52 54.33 71.77 M 75.69 69.50 C 75.65 70.80 75.63 72.10 75.63 73.40 C 77.56 73.47 79.54 73.32 81.11 72.06 C 79.61 70.64 77.83 69.46 75.69 69.50 M 124.51 69.65 C 124.75 70.92 125.04 72.18 125.38 73.43 C 126.72 73.37 128.07 73.35 129.41 73.32 C 129.39 72.08 129.38 70.85 129.36 69.61 C 127.74 69.59 126.12 69.62 124.51 69.65 M 105.36 75.06 C 105.45 75.66 105.63 76.84 105.72 77.44 C 107.38 77.36 109.32 77.95 110.71 76.72 C 110.61 75.36 109.62 74.37 108.61 73.57 C 107.34 73.39 106.38 74.49 105.36 75.06 M 165.64 92.50 C 165.65 93.43 165.66 94.36 165.68 95.29 C 167.00 95.39 168.32 95.50 169.64 95.62 C 169.54 94.61 169.44 93.60 169.35 92.60 C 168.11 92.57 166.87 92.54 165.64 92.50 Z" />
</g>
</svg>

<?xml version="1.0" encoding="utf-8"?>
<!-- Generator: Adobe Illustrator 26.0.3, SVG Export Plug-In . SVG Version: 6.00 Build 0)  -->
<svg version="1.1" id="Layer_1" xmlns="http://www.w3.org/2000/svg" xmlns:xlink="http://www.w3.org/1999/xlink" x="0px" y="0px"
	 viewBox="0 0 228 250" style="enable-background:new 0 0 228 250;" xml:space="preserve">
<style type="text/css">
	.st0{fill:#FFFFFF;}
	.st1{fill:#242021;}
	.st2{fill:#B82628;}
</style>
<g id="_x23_ffffffff">
	<path class="st0" d="M144.6,18.5c12.7-4.5,27.6-1.7,37.9,7c6.1,5.2,9.6,12.9,11.2,20.6c4.4,15.5,0.3,31.9-6.4,46.1
		c-8,15.6-18.7,29.6-30.7,42.2c-0.9,1.2-1.9-0.8-2.4-1.4c-4.5-7.7-11.4-14.2-19.9-17.3c-12.5-5.3-25.9-8-39.3-9.8
		c-12.8-2.8-26.1-3.7-38.3-8.8C46.8,93,38,85.8,32.8,76.2c-3.7-7.5-3.5-17.1,1.3-24.2c5.6-8.7,15.7-13.5,25.6-15.2
		c12.9-1.7,26.2-0.1,38.3,4.9c6.6,2.5,12.6,6.2,19.2,8.7c2.9-4.5,2.8-10.1,5.5-14.6C127.1,27.3,135.6,21.6,144.6,18.5 M141.1,30.1
		c-10.2,8.5-16.1,21.6-16.6,34.8c-7.3-3.4-13.9-7.9-21.4-11C91,48.9,77.8,45,64.5,47.1c-3,0.5-5.9,2.1-9,1.4
		c-1.9-0.3-4.7-0.7-5.2,1.8c-1.2,3.8-5.2,5.7-6.5,9.4C42.5,64.6,43.6,70.2,47,74c8.5,9.8,20.3,17.1,33.3,19c0.8-1.3,1.6-2.6,2.4-3.9
		c1.6,1,2.5,2.6,3.2,4.2c5.7,0.9,11.8,0.8,17,3.7c2.7,1.5,5.9,0.2,8.7,1c10.6,2.2,21,5.7,30.8,10.4c4.4,2.1,8.3,5,12,8.2
		c0.8,0.5,2,1.8,2.9,0.8c8-7.3,13.3-16.8,18.7-26.1c2.4-5.3,3.8-10.9,5.5-16.4c1.6-6.8,1-14,1-20.9c0-5.4-2.5-10.4-4.7-15.2
		c-1.5-2.7,0.8-6.6-1.9-8.8c-2.3-2.8-6.2-0.4-9.1-1.7c-2.9-1.1-5.9-2-9-2.1c0.2,1.4,0.5,2.9,0.7,4.3c-0.5,0-1.6,0-2.1,0
		c0.7-1.6,1.1-3.2,1.4-4.9C152,25.7,145.8,26.4,141.1,30.1z"/>
	<path class="st0" d="M63.2,54.5c1-1.2,1.9-2.4,2.9-3.6c1.2,1.3,2.4,2.7,2.6,4.6C66.8,55.3,65,54.9,63.2,54.5z"/>
	<path class="st0" d="M89.5,55.7c1.3,0,2.5,0,3.8,0.1c0.1,1.3,0.1,2.6,0.2,3.9C91.3,59.6,89.2,58.1,89.5,55.7z"/>
	<path class="st0" d="M54.3,71.8c1.3-1.2,2.5-2.5,3.8-3.8c2.2,1.6,2.8,4.2,2.4,6.8C58.2,74.4,56.2,73,54.3,71.8z"/>
	<path class="st0" d="M75.7,69.5c2.1,0,3.9,1.1,5.4,2.6c-1.6,1.3-3.6,1.4-5.5,1.3C75.6,72.1,75.7,70.8,75.7,69.5z"/>
	<path class="st0" d="M124.5,69.7c1.6,0,3.2-0.1,4.8,0c0,1.2,0,2.5,0.1,3.7c-1.3,0-2.7,0.1-4,0.1C125,72.2,124.8,70.9,124.5,69.7z"
		/>
	<path class="st0" d="M105.4,75.1c1-0.6,2-1.7,3.2-1.5c1,0.8,2,1.8,2.1,3.2c-1.4,1.2-3.3,0.6-5,0.7
		C105.6,76.8,105.4,75.7,105.4,75.1z"/>
	<path class="st0" d="M165.6,92.5c1.2,0,2.5,0.1,3.7,0.1c0.1,1,0.2,2,0.3,3c-1.3-0.1-2.6-0.2-4-0.3
		C165.7,94.4,165.6,93.4,165.6,92.5z"/>
</g>
<g id="_x23_242021ff">
	<path class="st1" d="M133,11.3c18.5-8.1,41.1-6.2,57.9,4.9c12.3,8.2,20.2,21.8,23.1,36.1c2.3,9.4,1.5,19.1,1.2,28.7
		c-1,7.3-0.4,14.7-1.3,22c-0.5,8.3-0.5,16.6-0.7,24.9c-1,10.6-3,21.3-7.4,31.1c-7.4,17-19.1,31.7-31.9,44.9
		c-11.1,11.6-23.6,21.8-36.2,31.7c-1.8,1.3-3.7,2.6-5.9,3.1c-9.1-16.5-25.8-27.5-43.3-33.3c-19.9-6.5-41.4-9.3-59.6-20.4
		c-9.8-6.1-18.8-14.9-21.7-26.4c-1.5-4.4-1-9-1.1-13.5c0.2-17.3,0.2-34.7,0.5-52c1.5-8.5,0.2-17.2,1.2-25.7
		c4.6-20.9,23-37.7,43.8-41.6c7.3-2,14.9-1.2,22.3-1.1c8.2,1.2,16.2,3.2,23.8,6.6c3.9,1.3,7.3,4.1,11.4,4.7
		C113.1,24.7,122.2,15.8,133,11.3 M144.6,18.5c-8.9,3.1-17.4,8.8-21.9,17.3c-2.7,4.5-2.6,10.2-5.5,14.6c-6.6-2.5-12.7-6.2-19.2-8.7
		c-12.1-5-25.4-6.6-38.3-4.9c-9.9,1.8-20,6.6-25.6,15.2c-4.8,7-5,16.6-1.3,24.2c5.2,9.5,14,16.7,23.9,20.9c12.2,5,25.5,6,38.3,8.8
		c13.4,1.8,26.8,4.5,39.3,9.8c8.5,3.1,15.4,9.5,19.9,17.3c0.5,0.6,1.5,2.6,2.4,1.4c12-12.6,22.8-26.7,30.7-42.2
		c6.8-14.2,10.9-30.6,6.4-46.1c-1.7-7.7-5.2-15.4-11.2-20.6C172.2,16.8,157.2,14,144.6,18.5z"/>
</g>
<g id="_x23_b82628ff">
	<path class="st2" d="M141.1,30.1c4.7-3.7,10.9-4.4,16.7-4.5c-0.2,1.7-0.7,3.4-1.4,4.9c0.5,0,1.6,0,2.1,0c-0.2-1.4-0.5-2.9-0.7-4.3
		c3.1,0.1,6.1,1,9,2.1c2.9,1.3,6.8-1.1,9.1,1.7c2.7,2.2,0.4,6.1,1.9,8.8c2.2,4.8,4.8,9.7,4.7,15.2c0,7,0.6,14.1-1,20.9
		c-1.7,5.5-3.1,11.2-5.5,16.4c-5.4,9.2-10.7,18.8-18.7,26.1c-0.9,1-2.2-0.2-2.9-0.8c-3.6-3.2-7.5-6.2-12-8.2
		c-9.8-4.7-20.2-8.2-30.8-10.4c-2.8-0.8-6.1,0.6-8.7-1c-5.2-2.9-11.3-2.8-17-3.7c-0.8-1.6-1.7-3.2-3.2-4.2c-0.8,1.3-1.6,2.6-2.4,3.9
		c-13-1.9-24.8-9.1-33.3-19c-3.4-3.8-4.6-9.4-3.2-14.3c1.3-3.7,5.3-5.6,6.5-9.4c0.5-2.5,3.3-2.1,5.2-1.8c3.1,0.7,6-0.9,9-1.4
		C77.8,45,91,48.9,103.1,54c7.4,3.1,14.1,7.6,21.4,11C124.9,51.7,130.9,38.6,141.1,30.1 M63.2,54.5c1.8,0.4,3.6,0.8,5.5,1
		c-0.2-1.9-1.4-3.3-2.6-4.6C65.1,52.1,64.1,53.3,63.2,54.5 M89.5,55.7c-0.3,2.4,1.8,3.9,4,4c-0.1-1.3-0.1-2.6-0.2-3.9
		C92,55.7,90.8,55.7,89.5,55.7 M54.3,71.8c1.9,1.2,3.8,2.6,6.2,2.9c0.4-2.6-0.2-5.1-2.4-6.8C56.8,69.2,55.6,70.5,54.3,71.8
		 M75.7,69.5c0,1.3-0.1,2.6-0.1,3.9c1.9,0.1,3.9-0.1,5.5-1.3C79.6,70.6,77.8,69.5,75.7,69.5 M124.5,69.7c0.2,1.3,0.5,2.5,0.9,3.8
		c1.3-0.1,2.7-0.1,4-0.1c0-1.2,0-2.5-0.1-3.7C127.7,69.6,126.1,69.6,124.5,69.7 M105.4,75.1c0.1,0.6,0.3,1.8,0.4,2.4
		c1.7-0.1,3.6,0.5,5-0.7c-0.1-1.4-1.1-2.3-2.1-3.2C107.3,73.4,106.4,74.5,105.4,75.1 M165.6,92.5c0,0.9,0,1.9,0,2.8
		c1.3,0.1,2.6,0.2,4,0.3c-0.1-1-0.2-2-0.3-3C168.1,92.6,166.9,92.5,165.6,92.5z"/>
</g>
</svg>
